X:9
T:Schottisch GC 10- chords  (align)
M:2/4
L:1/16
K:Gmaj%%MIDI gchordon
"G"B,2B,E D3B, | "D7"C2A,2 A,B,C2 | D2DB A3F | "G"G2B,2 B,ED2 | B,2B,E D3B, | "D7"C2A,2 A,B,C2 | \
D2DB A3F | "G"G2B2 G2z2 |:
"D"AAA2 B2A2 | FFF2 G2F2 | "A7"EEE2 F2E2 | "D"D2B2A4 | \
AAA2 B2A2 | FFF2 G2F2 | "A7"EEE2 F3E | "D"D2F2 D2"_> Teil A"z2 :: [K:Cmaj]
"C"C4 EG,CE | G2EG c2BA | \
"G7"G2DE FED2 | "C"G2CD EDC2 | C2G,C E2CE | G2EG c2BA | "G7"G2DE FED2 |
"C"C2c2 c2z2 || \
"Am"!>!c4 ^DEDE | "D7"A3D D2D2 | "G7"A4 ^CDCD | "C"G3C C2C2 | "Am"c4 ^DEDE | "F"B2A2 G2F2 | "C/G"EGG2 "G7"DGG2 | "C"C2c2 c2z2 :| 

